X:1
T:Title
%%score { ( 1 3 ) | ( 2 4 ) }
L:1/8
M:4/4
K:A
V:1 treble nm="Grand Piano"
V:3 treble 
V:2 bass 
V:4 bass 
V:1
 z4 z2[Q:1/4=108] [CE]>[DF] | [CA]2 [CA]>[CA] [CA]2 [DF]>[CE] | [CA]2 [CA]>[DB] [Ec]2 [EA]>B | %3
 c2 c>c c2 A>A | B6 z2 | [CA]2 [CA]>[CA] [CA]2 [DF]>[CE] | [CA]2 [EA]>B c2 [EA]>[FB] | %7
 c2 c>c c2 A>B |[M:3/4] A6 |[M:1/4] [CE]>[DF] |[M:4/4] [CA]2 [CA]<[CA] [CA]2 [DF]>[CE] | A6 z2 | %12
 c2 c<c c2 B>A | c6 z2 | c2 c>e c2 [Ec]>[EB] | [FA]2 [DF]>[A,DA] [CE]2 [EA]>[FB] | c2 c<c c2 A>B | %17
[M:3/4] A6 |] %18
V:2
 z4 z2 [A,,A,]>[A,,A,] | [A,,E,]2 [A,,E,]>[A,,E,] [A,,E,]2 [A,,A,]>[A,,A,] | %2
 [A,,E,]2 [A,,E,]>[A,,E,] [A,,A,]2 [C,A,]>[E,G,E] | [A,E]2 [A,E]>[A,E] [A,E]2 [F,B,^D]>[F,B,D] | %4
 E4 z4 | [A,,E,]2 [A,,E,]>[A,,E,] [A,,E,]2 [A,,A,]>[A,,A,] | %6
 [A,,E,]2 [C,A,]>[E,G,E] [A,E]2 [C,A,]>[D,A,] | [E,A,E]2 [E,A,E]>[E,A,E] [E,A,E]2 [E,A,C]>[E,G,D] | %8
[M:3/4] z2 F,2 E,2 |[M:1/4] [A,,A,]>[A,,A,] | %10
[M:4/4] [A,,E,]2 [A,,E,]<[A,,E,] [A,,E,]2 [A,,A,]>[A,,A,] | %11
 [A,,E,]2 [D,F,]>[D,F,] [A,,E,]2 [C,A,]>[E,G,E] | [A,E]2 [A,E]<[A,E] [A,E]2 [A,D]>[A,C] | %13
 [A,E]2 [C,A,]>[E,G,] A,2[K:treble] [A,C]>[A,D] | %14
 [A,E]2 [A,E]>[A,CA][K:bass] [A,E]2 [A,,A,]>[C,A,] | %15
 [D,A,]2 [D,A,]>[F,,F,] [A,,A,]2 [C,A,]>[D,A,] | %16
 [E,A,E]2 [E,A,E]<[E,A,E] [E,A,E]2 [E,A,C]>[E,G,D] |[M:3/4] z2 F,>^D, E,2 |] %18
V:3
 x8 | x8 | x8 | x8 | z4 D2 [CE]>[DF] | x8 | x8 | x8 |[M:3/4] [A,C]2 D2 C2 |[M:1/4] x2 |[M:4/4] x8 | %11
 C2 D>D C2 [EA]>B | x8 | z2 E>E E2 A>B | x8 | x8 | x8 |[M:3/4] [A,C]2 D>=C ^C2 |] %18
V:4
 x8 | x8 | x8 | x8 | [E,G,]6 [A,,A,]>[A,,A,] | x8 | x8 | x8 |[M:3/4] A,,6 |[M:1/4] x2 |[M:4/4] x8 | %11
 x8 | x8 | x6[K:treble] x2 | x4[K:bass] x4 | x8 | x8 |[M:3/4] A,,6 |] %18

